X: 174
T: A Farruquiña
R: polka
M: 2/4
K: Dmajor
d>A B/2A/2B/2c/2|dA Bc|dc/2d/2 e/2d/2c/2B/2|A>F A/2G/2F/2E/2|
D>E F/2E/2F/2G/2|A>B c/2d/2c/2A/2|(3B/2c/2B/2A- A2-|A2- AD/2E/2||
|:F>D F/2D/2F/2A/2|G/2F/2E/2D/2 CC/2E/2|G>E G/2E/2G/2B/2|A/2G/2F/2E/2 DD/2E/2|
F>D F/2D/2F/2A/2|G/2F/2E/2D/2 C/2D/2E/2F/2|G/2F/2E/2D/2 C/2D/2E/2F/2|A/2G/2F/2E/2 DD/2E/2|
F>D F/2D/2F/2A/2|G/2F/2E/2D/2 CC/2E/2|G>E G/2E/2G/2B/2|A/2G/2F/2E/2 DD/2E/2|
F>D F/2D/2F/2A/2|G/2F/2E/2D/2 C2|GF AG|[M:3/4] EC D2-DD/2E/2:|
|:A/2G/2F/2E/2 A/2G/2F/2E/2|BA/2F/2 D/2F/2D/2F/2|A/2G/2F/2E/2 A/2G/2F/2E/2|1 DC/2E/2 DD/2F/2:|2 D2-DB/2A/2||
|:G/2A/2G/2F/2 E/2B/2A/2G/2|F/2G/2F/2E/2 DG/2F/2|E/2F/2E/2D/2 C/2G/2F/2E/2|(3G/2A/2G/2F- FB/2A/2|
G/2A/2G/2F/2 E/2B/2A/2G/2|F/2G/2F/2E/2 DG/2F/2|E/2F/2E/2D/2 C/2G/2F/2E/2|1 D2- DB/2A/2:|2 D4||

